icon-themes/breeze_svg/cmd/sc_framelinecolor.svg

<svg viewBox="0 0 16 16" xmlns="http://www.w3.org/2000/svg"><path d="m3 3v10h10v-10zm1 1h8v6.125 1.875h-2-6zm6 8c1.108 0 2-.836253 2-1.875 0-.3170992-.103019-.6058882-.25-.8671875-.41994-.8789228-1.36084-1.9810157-1.75-3.2578125-.3891705 1.2767968-1.3554506 2.3788897-1.7753906 3.2578125-.1469498.2612993-.2246094.5500883-.2246094.8671875 0 1.038747.8919995 1.875 2 1.875z" fill="#4d4d4d"/><path d="m2 2v12h12v-12zm1 1h10v10h-10z" fill="#f47750"/></svg>

<svg xmlns="http://www.w3.org/2000/svg" viewBox="0 0 16 16">
 <path 
     style="fill:#4d4d4d" 
     d="M 3 3 L 3 13 L 13 13 L 13 3 L 3 3 z M 4 4 L 12 4 L 12 10.125 L 12 12 L 10 12 L 4 12 L 4 4 z M 10 12 C 11.108 12 12 11.163747 12 10.125 C 12 9.8079008 11.896981 9.5191118 11.75 9.2578125 C 11.33006 8.3788897 10.38916 7.2767968 10 6 C 9.6108295 7.2767968 8.6445494 8.3788897 8.2246094 9.2578125 C 8.0776596 9.5191118 8 9.8079008 8 10.125 C 8 11.163747 8.8919995 12 10 12 z "
     />
 <path 
     style="fill:#f47750" 
     d="M 2 2 L 2 14 L 14 14 L 14 2 L 2 2 z M 3 3 L 13 3 L 13 13 L 3 13 L 3 3 z "
     />
 </svg>
